icons/redeem-icon.svg

<svg xmlns="http://www.w3.org/2000/svg" viewBox="0 0 80 55"><defs><style>.cls-1{fill:#a97b3f}</style></defs><g id="Group_97" data-name="Group 97" transform="translate(-920 -1129)"><g id="Group_87" data-name="Group 87" transform="translate(920 1129)"><path id="Path_155" data-name="Path 155" class="cls-1" d="M5.5 3A2.476 2.476 0 0 0 3 5.5a2.345 2.345 0 0 0 .75 1.75 52.023 52.023 0 0 0 9.65 3.55c-2.65-3.1-5.25-6.2-6.15-7.05A2.345 2.345 0 0 0 5.5 3z" transform="translate(12 12)"/><path id="Path_156" data-name="Path 156" class="cls-1" d="M21.75 17.75a2.52 2.52 0 0 1-3.55-.05 2.444 2.444 0 0 1 0-3.45L26.45 6H0v20a5.015 5.015 0 0 0 5 5h25V9.55z" transform="translate(0 24)"/><path id="Path_157" data-name="Path 157" class="cls-1" d="M12.2 22.8a7.5 7.5 0 0 1 10.6-10.6c1.1 1.1 4.4 5 7.2 8.35V0H5a5.015 5.015 0 0 0-5 5v20h16.35a14.385 14.385 0 0 1-4.15-2.2z"/><path id="Path_158" data-name="Path 158" class="cls-1" d="M47 0H7v20.55c2.8-3.35 6.05-7.25 7.2-8.35a7.5 7.5 0 0 1 10.6 10.6 14.385 14.385 0 0 1-4.15 2.2H52V5a5.015 5.015 0 0 0-5-5z" transform="translate(28)"/><path id="Path_159" data-name="Path 159" class="cls-1" d="M17.57 3.75a2.475 2.475 0 0 0-3.55 0c-.85.85-3.5 3.95-6.1 7.1a55.062 55.062 0 0 0 9.7-3.6 2.459 2.459 0 0 0-.05-3.5z" transform="translate(31.68 12)"/><path id="Path_160" data-name="Path 160" class="cls-1" d="M18.75 14.25a2.51 2.51 0 0 1-3.5 3.6l-.05-.05L7 9.55V31h40a5.015 5.015 0 0 0 5-5V6H10.55zM24.5 16h15a2.5 2.5 0 1 1 0 5h-15a2.5 2.5 0 1 1 0-5z" transform="translate(28 24)"/></g></g></svg>

<svg xmlns="http://www.w3.org/2000/svg" viewBox="0 0 80 55">
  <defs>
    <style>
      .cls-1 {
        fill: #a97b3f;
      }
    </style>
  </defs>
  <g id="Group_97" data-name="Group 97" transform="translate(-920 -1129)">
    <g id="Group_87" data-name="Group 87" transform="translate(920 1129)">
      <path id="Path_155" data-name="Path 155" class="cls-1" d="M5.5,3A2.476,2.476,0,0,0,3,5.5a2.345,2.345,0,0,0,.75,1.75A52.023,52.023,0,0,0,13.4,10.8C10.75,7.7,8.15,4.6,7.25,3.75A2.345,2.345,0,0,0,5.5,3Z" transform="translate(12 12)"/>
      <path id="Path_156" data-name="Path 156" class="cls-1" d="M21.75,17.75a2.52,2.52,0,0,1-3.55-.05,2.444,2.444,0,0,1,0-3.45L26.45,6H0V26a5.015,5.015,0,0,0,5,5H30V9.55Z" transform="translate(0 24)"/>
      <path id="Path_157" data-name="Path 157" class="cls-1" d="M12.2,22.8A7.5,7.5,0,0,1,22.8,12.2c1.1,1.1,4.4,5,7.2,8.35V0H5A5.015,5.015,0,0,0,0,5V25H16.35A14.385,14.385,0,0,1,12.2,22.8Z"/>
      <path id="Path_158" data-name="Path 158" class="cls-1" d="M47,0H7V20.55c2.8-3.35,6.05-7.25,7.2-8.35A7.5,7.5,0,0,1,24.8,22.8,14.385,14.385,0,0,1,20.65,25H52V5A5.015,5.015,0,0,0,47,0Z" transform="translate(28)"/>
      <path id="Path_159" data-name="Path 159" class="cls-1" d="M17.57,3.75a2.475,2.475,0,0,0-3.55,0c-.85.85-3.5,3.95-6.1,7.1a55.062,55.062,0,0,0,9.7-3.6A2.459,2.459,0,0,0,17.57,3.75Z" transform="translate(31.68 12)"/>
      <path id="Path_160" data-name="Path 160" class="cls-1" d="M18.75,14.25a2.51,2.51,0,0,1-3.5,3.6l-.05-.05L7,9.55V31H47a5.015,5.015,0,0,0,5-5V6H10.55ZM24.5,16h15a2.5,2.5,0,1,1,0,5h-15a2.5,2.5,0,1,1,0-5Z" transform="translate(28 24)"/>
    </g>
  </g>
</svg>
